X:1
T:WOULD I WERE WITH THEE
T:WOULD I WERE WITH THEE
T:Carlo BOSETTI
C:Carlo BOSETTI
Z:Caroline Elizabeth Sarah NORTON
%%score 1 { 2 | ( 3 4 ) }
L:1/8
Q:1/4=83
M:4/4
K:F
V:1 treble nm="Ténor" snm="T."
V:2 treble nm="Piano" snm="Pia."
V:3 bass 
V:4 bass 
V:1
"^Moderato" x2 z | x8 | x8 | x8 |[K:F][K:treble] z4"_1.""_2." z |S c =B _B | A2 A2 A (B/A/) G A | %7
w: |||||Would I were|with thee ev'- ry * day and|
w: |||||Would I were|with thee when, the * world for-|
 (c2 B2) z C E G | c3 c =B c _B G | A4 z c =B _B | A3 A A (B/A/) G A | (c2 B2) z C E G | %12
w: hour, * Which now I|pass so sad- ly far from|thee; Would that my|form pos- sess'd the * ma- gic|pow- er to fol- low|
w: get- ting, Thy wea- ry|limbs up- on the turf are|thrown,- While bright and|red our eve- ning * sun is|set- ting, And all thy|
 c3 c =B c _B G | F4 z4 |!<(! (d4 e2 f2)!<)! |!>(! (f2 c2)!>)! z4 | c4 B3 (c/B/) | A4 z4 | %18
w: where my hea- vy heart would|be;|What- e'er thy-|lot- _|o'er land or *|sea,|
w: thoughts be- long to heav'n a-|lone;|While hap- py|dreams- _|thy thoughts em- *|ploy,|
!<(! (d4 e2 f2)!<)! |!>(! (f2 c2)!>)! z4 | (c3 =B) (!fermata!_B3 E) | F4 z4 | z8 | z4 z!D.S.! |: %24
w: Would I were|with thee|e- \-- ter- nal-|ly.|||
w: Would I were|with thee|in- _ _ thy|joy.|||
"_3.""_4." c =B _B | A2 A2 A (B/A/) G A | c2 B2 z C E G | c3 c =B c _B G | A4 z c =B _B | %29
w: Would I were|with thee when, no * long- er|feign- ing, The hurr- ied|laugh that sti- fles back a|sigh, When thy young|
w: Would I were|with thee when the * day is|break- ing, And when the|moon has lit the lone- ly|sea, Or when in|
 A3 A A (B/A/) G A | c2 B2 z C E G | c3 c =B c _B G | F4 z4 | (d4 e2 f2) | (f2 c2) z4 | %35
w: lip pours forth its * sweet com-|plain- ing, And tears have|quench'd the light with- in thine|eye,|When all seems|dark *|
w: crowds some care- less * note a-|wa- king Speaks to thy|heart in mem- o- ry of|me,|In joy or|pain, *|
 c4 B3 (c/B/) | A4 z4 | (d4 e2 f2) | (f2 c2) z4 | (c3 =B) (!fermata!_B3 E) | F4 z4 | z8 | z4 z :| %43
w: and sad be- *|low,-|Would I were|with thee|in- _ _ thy|woe!|||
w: by sea or *|shore,|Would I were|with thee|ev- \-- \-- er|more!|||
V:2
 (c=B_B) | A3 A (A2{BA} G)A | (c2 B2) z (bag | fee'd' c'bag) | f2 z2 [A,CF] | z z2 | %6
 z [A,CF][A,CF][A,CF] z [A,CF][A,CF][A,CF] | z [B,CE][B,CE][B,CE] z [B,CE][B,CE][B,CE] | %8
 z [B,CE][B,CE][B,CE] z [B,CE][B,CE][B,CE] | z [A,CF][A,CF][A,CF] [A,CF] z z2 | %10
 z [A,CF][A,CF][A,CF] z [A,CF][A,CF][A,CF] | z [B,CE][B,CE][B,CE] z [B,CE][B,CE][B,CE] | %12
 z [B,CE][B,CE][B,CE] z [B,CE][B,CE][B,CE] | z [A,CF][A,CF][A,CF] [A,CF]2 z2 | %14
 z [DF][DF][DF] z [DF][DF][DF] | z [CF][CF][CF] z [CF][CF][CF] | %16
 z [B,E][B,E][B,E] z [B,CE][B,CE][B,CE] | z [A,CF][A,CF][A,CF] z [A,CF][A,CF][A,CF] | %18
 z [DF][DF][DF] z [DF][DF][DF] | z [CF][CF][CF] z [CF][CF][CF] | %20
 z [B,E][B,E][B,E] !fermata![B,CE]2 z2 | z [A,CF][A,CF][A,CF] [A,CF] (cBA | AGed c=B_BG) | %23
 F2 z2 [A,CF] |: z z2 | z [A,CF][A,CF][A,CF] z [A,CF][A,CF][A,CF] | %26
 z [B,CE][B,CE][B,CE] z [B,CE][B,CE][B,CE] | z [B,CE][B,CE][B,CE] z [B,CE][B,CE][B,CE] | %28
 z [A,CF][A,CF][A,CF] [A,CF] z z2 | z [A,CF][A,CF][A,CF] z [A,CF][A,CF][A,CF] | %30
 z [B,CE][B,CE][B,CE] z [B,CE][B,CE][B,CE] | z [B,CE][B,CE][B,CE] z [B,CE][B,CE][B,CE] | %32
 z [A,CF][A,CF][A,CF] [A,CF]2 z2 | z [DF][DF][DF] z [DF][DF][DF] | z [CF][CF][CF] z [CF][CF][CF] | %35
 z [B,E][B,E][B,E] z [B,CE][B,CE][B,CE] | z [A,CF][A,CF][A,CF] z [A,CF][A,CF][A,CF] | %37
 z [DF][DF][DF] z [DF][DF][DF] | z [CF][CF][CF] z [CF][CF][CF] | %39
 z [B,E][B,E][B,E] !fermata![B,CE]2 z2 | z [A,CF][A,CF][A,CF] [A,CF] (cBA | AGed c=B_BG) | %42
 F2 z2 [A,CF] :| %43
V:3
 z z2 | F,4 F,4 | G,4 G,4 | E,4 C,4 | [F,A,]2 z2 [F,,F,] | z z2 | [F,,F,]4 [F,,F,]4 | %7
 [G,,G,]4 [G,,G,]4 | [C,,C,]4 [C,,C,]4 | [F,,F,]4- [F,,F,] z z2 | [F,,F,]4 [F,,F,]4 | %11
 [G,,G,]4 [G,,G,]4 | [C,,C,]4 [C,,C,]4 | [F,,F,]4- [F,,F,]2 z2 | [B,,B,]4 [B,,B,]4 | %15
 [A,,A,]4 [A,,A,]4 | [G,,G,]4 C,4 | [F,,F,]4 [F,,F,]4 | [B,,B,]4 [B,,B,]4 | [A,,A,]4 [A,,A,]4 | %20
 [G,,G,]4 !fermata!C,2 z2 | [F,,F,]4- [F,,F,]2 z2 | [B,D]4 [C,E,B,]4 | [F,A,]2 z2 [F,,F,] |: z z2 | %25
 [F,,F,]4 [F,,F,]4 | [G,,G,]4 [G,,G,]4 | [C,,C,]4 [C,,C,]4 | [F,,F,]4- [F,,F,] z z2 | %29
 [F,,F,]4 [F,,F,]4 | [G,,G,]4 [G,,G,]4 | [C,,C,]4 [C,,C,]4 | [F,,F,]4 [F,,F,]2 z2 | %33
 [B,,B,]4 [B,,B,]4 | [A,,A,]4 [A,,A,]4 | [G,,G,]4 C,4 | [F,,F,]4 [F,,F,]4 | [B,,B,]4 [B,,B,]4 | %38
 [A,,A,]4 [A,,A,]4 | [G,,G,]4 !fermata!C,2 z2 | [F,,F,]4- [F,,F,]2 z2 | [B,D]4 [C,E,B,]4 | %42
 [F,A,]2 z2 [F,,F,] :| %43
V:4
 x3 | F,[A,C][A,C][A,C] F,[A,C][A,C][A,C] | G,[B,C][B,C][B,C] G,[B,C][B,C][B,C] | %3
 E,[G,B,][G,B,][G,B,] C,[G,B,][G,B,][G,B,] | x5 | x3 | x8 | x8 | x8 | x8 | x8 | x8 | x8 | x8 | x8 | %15
 x8 | x8 | x8 | x8 | x8 | x8 | x8 | x8 | x5 |: x3 | x8 | x8 | x8 | x8 | x8 | x8 | x8 | x8 | x8 | %34
 x8 | x8 | x8 | x8 | x8 | x8 | x8 | x8 | x5 :| %43

